src/images/icons/whatsapp-icon.svg

<svg width="35" height="36" viewBox="0 0 35 36" fill="none" xmlns="http://www.w3.org/2000/svg">
<g id="Whatsapp">
<g clip-path="url(#clip0_1185_3943)">
<rect y="0.500061" width="35" height="35" rx="17.5" fill="white"/>
<path id="Subtract" fill-rule="evenodd" clip-rule="evenodd" d="M100 0.500061H0V100.5H100V0.500061ZM10.0056 22.0856L8.75 26.7501L13.4659 25.4927C15.3005 26.4792 17.4302 26.7726 19.4642 26.3192C21.4982 25.8658 23.3001 24.6959 24.5391 23.0243C25.7782 21.3528 26.3714 19.2915 26.2098 17.2189C26.0482 15.1463 25.1427 13.2013 23.6595 11.7408C22.1762 10.2804 20.2147 9.40246 18.1349 9.26813C16.0551 9.13379 13.9965 9.75208 12.3368 11.0095C10.6771 12.267 9.52769 14.0792 9.09948 16.1138C8.67128 18.1483 8.99299 20.2686 10.0056 22.0856ZM13.9849 23.9199L13.6932 23.7473L11.0585 24.4474L11.7604 21.844L11.5775 21.5433C10.9073 20.4546 10.553 19.2017 10.5543 17.9242C10.552 16.3833 11.0608 14.8851 12.0013 13.6628C12.9418 12.4405 14.2613 11.5629 15.7541 11.1667C17.2469 10.7705 18.8292 10.878 20.2543 11.4724C21.6795 12.0669 22.8675 13.1148 23.6332 14.453C24.3988 15.7913 24.6992 17.3445 24.4875 18.8708C24.2758 20.397 23.5638 21.8106 22.4626 22.8911C21.3613 23.9716 19.9327 24.6584 18.3993 24.8445C16.8658 25.0306 15.3137 24.7055 13.9849 23.9199ZM20.1865 18.8388C20.4007 18.8875 20.6009 18.9843 20.7718 19.1219C20.8216 19.151 20.876 19.1812 20.9328 19.2127L20.933 19.2128C21.2604 19.3943 21.6699 19.6213 21.7457 19.9699C21.7828 20.1701 21.7568 20.3767 21.6715 20.5616C21.5263 20.8676 21.3078 21.1334 21.0355 21.3354C20.7631 21.5375 20.4451 21.6696 20.1094 21.7203C19.5204 21.787 18.9242 21.6933 18.3843 21.4491C17.8645 21.2716 17.3669 21.035 16.9013 20.744C15.9735 20.1714 15.166 19.4246 14.5236 18.545C14.3259 18.2772 14.1427 17.999 13.9749 17.7117C13.7422 17.3366 13.5657 16.9296 13.4509 16.5037C13.4057 16.3264 13.3824 16.1442 13.3817 15.9613C13.3703 15.6355 13.4324 15.3114 13.5633 15.0127C13.6942 14.7141 13.8906 14.4485 14.138 14.2356C14.2805 14.109 14.4567 14.0264 14.6453 13.9975C14.8339 13.9686 15.0268 13.9948 15.2008 14.0728C15.5382 14.3572 15.7869 14.7319 15.9176 15.1527C16.0866 15.4528 16.1656 15.7951 16.145 16.1388C16.0522 16.4504 15.8822 16.7336 15.6506 16.9622C15.5845 17.0187 15.5429 17.0986 15.5346 17.185C15.5263 17.2715 15.5519 17.3577 15.6061 17.4257C16.2417 18.5148 17.2277 19.3575 18.404 19.8171C18.4695 19.8528 18.5458 19.8636 18.6186 19.8472C18.6914 19.8309 18.7557 19.7886 18.7995 19.7283C18.8646 19.6495 18.9297 19.546 18.9982 19.4368C19.1484 19.1979 19.3154 18.9322 19.536 18.8408C19.7499 18.7908 19.9724 18.7901 20.1865 18.8388Z" fill="#00D95F"/>
</g>
</g>
<defs>
<clipPath id="clip0_1185_3943">
<rect y="0.500061" width="35" height="35" rx="17.5" fill="white"/>
</clipPath>
</defs>
</svg>

<svg width="35" height="36" fill="none" xmlns="http://www.w3.org/2000/svg"><g clip-path="url(#a)"><rect y=".5" width="35" height="35" rx="17.5" fill="#fff"/><path fill-rule="evenodd" clip-rule="evenodd" d="M100 .5H0v100h100V.5ZM10.006 22.086 8.75 26.75l4.716-1.257a8.68 8.68 0 0 0 5.998.826 8.662 8.662 0 0 0 5.075-3.295 8.622 8.622 0 0 0-.88-11.283 8.676 8.676 0 0 0-11.323-.731 8.62 8.62 0 0 0-2.331 11.076Zm3.979 1.834-.292-.173-2.634.7.701-2.603-.182-.3a6.89 6.89 0 0 1-1.024-3.62 6.97 6.97 0 0 1 1.447-4.261 7.016 7.016 0 0 1 8.253-2.19 6.994 6.994 0 0 1 3.38 2.98 6.968 6.968 0 0 1-1.171 8.438 7.007 7.007 0 0 1-8.478 1.029Zm6.201-5.081c.215.049.415.145.586.283.05.029.104.06.16.09h.001c.327.182.737.41.813.758.037.2.01.407-.074.592a2.067 2.067 0 0 1-1.563 1.158 3.289 3.289 0 0 1-1.725-.27 7.17 7.17 0 0 1-1.483-.706 8.42 8.42 0 0 1-2.377-2.199 9.302 9.302 0 0 1-.55-.833 4.526 4.526 0 0 1-.523-1.208 2.23 2.23 0 0 1-.07-.543 2.174 2.174 0 0 1 .757-1.725.99.99 0 0 1 1.063-.163c.337.284.586.659.717 1.08.169.3.248.642.227.986a1.932 1.932 0 0 1-.494.823.335.335 0 0 0-.045.464 5.597 5.597 0 0 0 2.798 2.391.307.307 0 0 0 .395-.089c.066-.079.13-.182.2-.291.15-.24.316-.505.537-.596.214-.05.436-.05.65-.002Z" fill="#00D95F"/></g><defs><clipPath id="a"><rect y=".5" width="35" height="35" rx="17.5" fill="#fff"/></clipPath></defs></svg>
